X:1
T:Mozart - Fantasie in F. {Professional Production full score}.
T:von W. A.Mozart
%%score { ( 1 5 6 ) | ( 2 4 ) | ( 3 7 ) }
L:1/8
Q:1/4=80
M:4/4
K:Ab
V:1 treble nm="Organ" snm="Org."
V:5 treble 
V:6 treble 
V:2 bass 
V:4 bass 
V:3 bass 
V:7 bass 
V:1
!fff!"^Allegro\n(Maestoso )" [FAcf]2 z3/2 (B/8A/8G/8A/8 c>)cB>A | %1
 [GBdg]2 z3/2 (c/8B/8=A/8B/8 d>)dc>B |"^Fantasie" [Bdgb]2 z3/2 (c/8B/8=A/8B/8 d>)dc>B | %3
"^(Kochel Nr. 608.)\nKomponiert den 3.Marz 1791." [ce_g=ac']2 z3/2 (d/8c/8=B/8c/8 e>)[ce][_Bd]>[=Ac] | %4
 [Bdfb]2 z2 [ce=ac']2 z2 | [dfbd']2 z3/2 (_g/8f/8=e/8f/8 d'>)[fd'][_ec']>[ec'] | %6
 [db]2 z3/2 (e/8d/8=c/8d/8 b>)[db][_ca]>[ca] | [B_g]2 z3/2 (_c/8B/8=A/8B/8 g>)[Bg][_Af]>[Af] | %8
 ([=G=e]4 [Ff]2) (=B2 | c2) z/ (c'/=b/c'/ g/a/_b/a/ =e/f/g/f/ | %10
 c2) z/ (c/=B/c/ G/A/_B/A/ =E/F/G/F/ | %11
 C2-) (C/=D/4=E/4F/4G/4=A/4=B/4 c2-) (c/=d/4=e/4f/4g/4=a/4=b/4 | %12
 c'2) !breath!z2[Q:1/4=120]"_(meno forte)"!f! (c4 | F4 G4 | A) (AGF B) (BAG | A) (AGF B) BAG | %16
 AGFG A=AB=B | ce=dc =Bc=AB | c2 z c' =dc'db | c'2 z c' =dc'db | c'2 z c2- c=A_B- | Bc_AB G4- | %22
 A4- B3 G | c z (c'2 _d'2 c'2) | z2 (c'2 d'2 c'2-) | c'bag f_e=df | e2 z2 z4 | z2 (g2 a2 g2) | %28
 z2 (g2 a2 g2-) | ggfe =d4- | d=efg c4- | c z f2- ff_e=d | z4 f4 | B4 Tc3 B/c/ | z2 (f2 _g2 f2) | %35
 z2 (f2 _g2 f2-) | fdcB (e4 | .e(.c (a4) g2) | c)c[I:staff +1]BA[I:staff -1] ddcB | a z e4 d2- | %40
 dcBe c d2 c | d2 z2 z2 (a2 | =d2 Te3/2d/4e/4 f2) z2 | z4 z2 (b2 | =e2 Tf3/2e/4f/4 g2) z2 | %45
 z4 (g4 | c'4 Tb3 c'/b/ | a)(abc' g)g=ab | =a2 b2- babc'- | c'f b2 z4 | z4 (f4 | b4 Ta3 b/a/ | %52
 g)gab ffga | eefg =ddef | e =Bc=d e Bcd | e =B/=d/ c/e/d/f/ e/_g/f/_a/ gg | %56
[Q:1/4=100] ^f/^g/=a/=b/ ^c'/b/a/g/ f/=e/=d/^c/ =B/=A/^G/^F/- |"_cresc."!<(! T^G8{FG}!<)! | %58
[Q:1/4=80]"^(Maestoso)" ^F2 z3/2 (=B/8=A/8^G/8A/8 ^c>)^cB>A | %59
 [^G=B=d^g]2 z3/2 ^c/8B/8^A/8B/8 d>d^c>B | [=B=d^g=b]2 z3/2 ^c/8B/8^A/8B/8 d>d^c>B | %61
 [_d=g_b_d']2 z3/2 _e/8d/8=c/8d/8 _f>[df][_ce]>[Bd] | [A_cea]2 z3/2 d/8=c/8B/8c/8 e>[ce][Bd]>[Ac] | %63
 [Bd_fb]2 z3/2 e/8d/8=c/8d/8 f>[df][_ce]>[Bd] | [Bd_fb]2 z3/2 e/8d/8=c/8d/8 f>[df][_ce]>[Bd] | %65
 [=ce=a=c']2 z3/2 =f/8e/8=d/8e/8 _g>[eg][_df]>[ce] | %66
 [Bd]2 z3/2 [Bd]/8[Ac]/8[GB]/8[Ac]/8 [gb]>[gb][eg]>[gb] | %67
 [Ac]2 z3/2 [=Ac]/8[GB]/8[FA]/8[GB]/8 [fa]>[fa][df]>[fa] | %68
 [GB]2 z3/2 [G=B]/8[FA]/8[EG]/8[FA]/8 [=eg]>[eg][ce]>[eg] | [FA]>[GB] [A-c]4 (=B2 | %70
 c2) z/ (c'/=b/c'/ g/a/_b/a/ =e/f/g/f/ | c2) z/ (c/=B/c/ G/A/_B/A/ =E/F/G/F/ | %72
 C2-) (C/=D/4=E/4F/4G/4=A/4=B/4 c2-) (c/=d/4=e/4f/4g/4=a/4=b/4 | c'2) z2 z4 || %74
[M:3/4][Q:1/4=50]!p!"^(III.)""^Andante""_(p dolce)" (c2 B2 A2 | G2) ([Bd]2 [Ac]2) | (_c2 B2 A2) | %77
 (A3/2{/BAGA}B/ G) z e2- | (e2 =d) z _d2- | (d2 c) z =f2 | (B3 c d2) |{/cde} (d2 !breath!c) cea | %82
!p! (c'2 b2 a2 | g2 d'2 c'2) | (_c'2 b2 a2) | (a3/2{/baga}b/ g) z z2 | ([c=a]2 [Bb]) z z2 | %87
 ([Bg]2 [A_a]) z [Aa]>[df] | [ce-]4 [de] z | ([DE-G]2 [CEA]) z (c>B) | (B3 c/4B/4=A/4B/4 =dc/>B/) | %91
 (B3 c/4B/4=A/4B/4 (.e).g) | (b3 c'/b/) (b/a/g/a/) | ([=da]2 [eg]) z/ e/ (c'b) | %94
 (b3/2c'/4b/4 a/) z/ g/ z/ f/ z/ e/ z/ | (e3/2f/4e/4 =dcBA) | G[_Gc] ([=GB-]2 [AB]) z3/4 =d/4 | %97
 ([Af]2 [Ge]) z (_g>f) | (f3/2=g/8f/8=e/8f/8 b) z (_f>e) | (e3/2=f/8e/8=d/8e/8 a) z a>e | %100
 _c'2- c'/>b/ a/4_g/4f/4e/4 =d[_cd] | ([_cf]2 !breath![Be]/) z/"^(I.Flote 8'solo)" (e=d_d | %102
 c/e/d/c/ B/d/c/B/ A/c/B/A/ | G/A/B/c/ d/e/f/e/ d/c/=B/c/) | %104
 (c/_c/).f/.f/ (c/B/).f/.f/ (B/A/).f/.f/ | (A/=c/B/A/ G/A/B/=B/ c/d/=d/e/) | %106
 (=e/f/_g/f/ e/f/g/=g/ a/=a/c'/b/) | (=d/_e/f/e/ d/e/=e/f/ _g/=g/b/a/) | %108
 (b/a/g/f/) (f/e/d/c/) (c/4B/4d/4c/4e/4d/4f/4e/4) | (e2 A) z (G/A/B/c/) | %110
 (T=c/B/).B/.B/ (B/b/)(b/g/) (g/e/)(e/B/) | (T=c/B/).B/.B/ (B/b/)(b/g/) (g/e/)(e/B/) | %112
 (B/e/g/f/ e/=d/c/B/ =A/B/c/_A/) | (BTA/G/4A/4 G) z (=d/e/c'/b/) | %114
 (b/a/c'/b/) (b/a/)(Pa/g/) (Pg/f/)(Pf/e/) | (e/=d/f/e/) (e/d/)(Pd/c/) (Pc/B/)(PB/A/) | %116
 (G/e/=d/c/) (c/B/A/G/) (F/A/4G/4B/4A/4c/4B/4) | (B2 E) z z/ (c/e/_g/) | %118
 (f/=g/_a/=a/ c'/b/a/b/) z/ (B/d/_f/) | (e/f/_g/=g/ b/a/g/a/) z/ (_c/e/a/) | %120
 (=d/f/a/_c'/ b/a/g/f/ e/d/c'/d/) | (=d/e/f/e/) e/!p!"^(II.)""_(meno p)"(e/f/g/ a/=a/b/=b/ | %122
"_(mit Viola)" =c'2 b2 a2 | [eg]2) (d'2 c'2) | (_c'2 b2 a2) | (a2 g) z z2 | %126
 (Tc'3/2b/4c'/4 d') z z2 | (Tb3/2a/4b/4 .c') (a2 f) | e4- e/d'/{c'}b/{a}g/ | %129
 ([de-b]2 [cea])"_(ohne Viola)" z (c'>b) | b z b3 b | (c'>b) b3 b | %132
 ([gb]/[^f=a]/[gb]/[fa]/ [gb]/[fa]/[gb]/[g=b]/ [_ac']/[gb]/[ac']/[=fa]/) | %133
 (b/a/g/a/ g/a/b/=b/ c'/) z/ _b/ z/ | (b/=a/c'/b/ _a/) z/ g/ z/ f/ z/ e/ z/ | %135
 (e/=d/f/e/ d/) z/ c/ z/ B/ z/ A/ z/ | %136
 G/ z/ c/ z/ z/ ([^c=e]/[=df]/[_eg]/ [fa]/[=eg]/[fa]/) z/4 d/4 | (f3/2g/4f/4 ._e)[Q:1/4=60] z z2 | %138
"^(II.)" f4- (bd') | e4- (ac') | =d d2 d2 d | %141
 (Pe/=d/)"_(II + Viola, + Prine .)".e/.e/ (Pe/d/).e/.e/ (Pe/d/).e/.e/ |!mf! ([ac']2 [gb]2 a2 | %143
 g2) ([bd']2 [ac']2) | (_c'2 b2 a2) | (a3/2b/4a/4 g) z z2 | (f3/2g/8=a/8b/8c'/8 d') z z2 | %147
 (e3/2f/8g/8_a/8b/8 c') z z3/2 c'/ | (c'b) (ba) (ag) | ([gbd']4 [ac']) z/ [cc']/ | %150
 ([cc'][Bb]) ([Bb][Aa]) ([Aa][Gg]) | ([dgbd']4 [cac']) z/ [a-c']/ | [ab] [ab]2 [ab]2 [ab] | %153
[Q:1/4=20] !breath![ac'][Q:1/4=50]!mf!"_(p)""^(III.)" E- E/4F/4E/4=D/4 E/4F/8G/8A/8B/8c/8_d/8 e/4f/4e/4d/4 c/4d/8e/8f/8g/8a/8b/8 | %154
 c'/4b/4d'/4c'/4 b/4a/4g/4f/4 e/4a/4g/4b/4 (5:4:5a/4g/4f/4e/4d/4 c/4f/4=e/4g/4 f/4_e/4d/4c/4 | %155
 TB4{AB} !trill(!Tg2{fg} |"^)""^(" !trill(!Tb6 | %157
"^(""^)""^+" !trill(!Tb4[Q:1/4=35] (6:4:6b/4c'/4b/4c'/4b/4[Q:1/4=20]a/4 .b || %158
[M:4/4][Q:1/4=80]!fff!!ff!"^Tempo I." [Acea]2 z3/2 d/8c/8B/8c/8 e>ed>c | %159
 [Bd_fb]2 z3/2 e/8d/8=c/8d/8 f>fe>d | [Be_gb]2 z3/2 f/8e/8=d/8e/8 =g>gf>e | %161
 [ce=ac']2 z3/2 d/8c/8=B/8c/8 e>[ce][_Bd]>[=Ac] | [Bdfb]2 z2 [ce=ac']2 z2 | %163
 [dfbd']2 z3/2 _g/8f/8=e/8f/8 d'>[fd'][_ec']>[ec'] | [db]2 z3/2 e/8d/8=c/8d/8 b>[db][_ca]>[ca] | %165
 [B_g]2 z3/2 _c/8B/8=A/8B/8 g>[Bg][_Af]>[Af] | ([=G=e]4 [Ff]2) (=B2 | %167
 c2) z/ (c'/=b/c'/ g/a/_b/a/ =e/f/g/f/ | c2) z/ (c/=B/c/ G/A/_B/A/ =E/F/G/F/ | %169
 C2-) (C/=D/4=E/4F/4G/4=A/4=B/4 c2-) (c/=d/4=e/4f/4g/4=a/4=b/4 | %170
 c'2) !breath!z2!f![Q:1/4=100] z2 (c'2 | (c'/)=b/_d'/c'/ _b/_a/g/f/ =e/g/c'/b/ a/g/f/e/ | %172
 .f/)(c/=B/c/ B/c/B/c/ d/c/=d/c/ _e/c/=e/c/ | .f/)c/=B/c/ B/c/B/c/ d/c/=d/c/ e/c/=e/c/ | %174
 f/=e/a/g/ f/_e/=d/c/ =B/c/e/d/ f2- | f/=e/a/g/ f/_e/=d/c/ =B/d/g/f/ e/d/c/B/ | %176
 c z z g- (gf) z f- | (fe) z g- (gf) z f- | f/=e/_d'/c'/ b/a/g/f/ Te3 =d/e/ | f2 z2 z4 | z8 | %181
 z4 z2 (g2 | c'2 b2 a/)a/b/c'/ g/g/a/b/ | f2 e4 =d2- | d c2 =B ce=dc | =B2 z g- (g=f) z f- | %186
 fe z g- gf z f- | (f=e) z2 (c'4 | f4 g4 | a)(agf b)(bag | c')c'ba _d'2 c'2- | c'f b2 z4 | %192
 z2 z ((a _g))(gfe | a)(a_gf b)(ba=g | a/) c'/=b/c'/ b/c'/b/c'/ _b/c'/b/c'/ b/c'/b/c'/ | %195
 =a/c'/a/c'/ _a/c'/a/c'/ g/c'/g/c'/ _g/[cc']/g/[cc']/ | %196
 f/c'/f/b/ e/[Bb]/e/[Bb]/ e/b/e/a/ =d/a/d/a/ | =d/a/d/g/ c/g/c/g/ f4 | %198
 [c=e]2[Q:1/4=95] [cf]4[Q:1/4=90][Q:1/4=85] [G_Bce]2 | %199
[Q:1/4=80]!fff!!fff! [FAcf]2 z3/2 B/8A/8G/8A/8 c>cB>A | [GBdg]2 z3/2 c/8B/8=A/8B/8 d>dc>B | %201
 [=Ace_g=a]2 z3/2 d/8c/8=B/8c/8 e>[ce][_Bd]>[Ac] | [B=dfb]2 z2 [=Bf=b]2 z2 | %203
 [c=egc']2 !breath!z2[Q:1/4=110] (c'4 | f4 Tg3 f/g/ | a)agf bbag | c'4- c'fbb | %207
 .[=eb]2 z2 .[=db]2 z2 | .[cgb]2 z2 .[=B=dfa]2 z2 | [_d=eg]2 f4 e2 |[Q:1/4=120] f2 z2 z2 [cgb]2 | %211
 [cfa]2 z2 z2 [cgb]2 | [cfa]2 z2 z2 Tc'3/2b/4c'/4 | d'[fbd'] z [dgb] z [cfa] z [B=eg] | %214
 f/ c'/d'/c'/ d'/c'/d'/c'/ =b/c'/_b/c'/ a/c'/g/c'/ | %215
 f/ c'/d'/c'/ d'/c'/d'/c'/ =b/c'/_b/c'/ a/c'/g/c'/ | f2 z (f =g[c=a][db][ec'] | %217
 [fd'])[Q:1/4=110][fbd'] z[Q:1/4=100] [dgb] z[Q:1/4=90] [cfa] z !breath![B=eg] | %218
[Q:1/4=120] a/c'/=e/g/ f/a/=d/f/ _e/_g/=B/d/ c/e/=a/c'/ | %219
 b/d'/^f/=a/[Q:1/4=110] g/b/[Q:1/4=100]=e/g/ .=f.[f_a].[dfg].[cec'] | %220
 .[cf] z[Q:1/4=80] (c'3/2(3b/4a/4g/4 f) z (c'3/2(3b/4a/4g/4 | f) z .[Acfa]2 .[FAcf]2 z2 |] %222
V:2
"^(Volles Hauptwerk )" [F,A,C]2 z3/2[K:treble] (G/8F/8=E/8F/8 A>)AG>F | %1
[K:bass] [F,G,B,D]2 z3/2[K:treble] (A/8G/8^F/8G/8 B>)B_A>G | %2
[K:bass] [=E,G,B,D]2 z3/2[K:treble] (A/8G/8^F/8G/8 B>)B_A>G | %3
[K:bass] [_E,_G,=A,C]2 z3/2[K:treble] (B/8=A/8^G/8A/8 c3/2) z/ z3/2 [E_G]/ | %4
 [DF]>[DF][CE]>[B,D][K:bass] F2 z2 | %5
 [F,B,D]2 z3/2[K:treble] (e/8d/8c/8d/8 f3/2) z/ z3/2[K:bass] (_G,/8F,/8=E,/8F,/8 | %6
 B,>)B,B,3/2[K:treble] (_c/8B/8=A/8B/8 d3/2) z/ z3/2[K:bass] (E,/8D,/8=C,/8D,/8 | %7
 _G,>)G,G,3/2[K:treble] (A/8_G/8F/8G/8 B3/2) z/ z3/2[K:bass] (=C/8B,/8=A,/8B,/8 | %8
 D>)DC>B, _A,>A,G,>F, | =E,2 z2 z2[K:treble] (=B2 | [=EG]2) z2 z2[K:bass] =B,2 | %11
 [=E,G,]2 [F,A,]2 C4- | [=E,G,C]2 z2 z4 | z8 | z8 | z8 | z4[K:treble] (F4 | C4 =D4 | %18
 E) (E=DC F) (FED | E) (E=DC F)FED | ECEF G3 F | =E2 F2 (C4 |[K:bass] F,4 G,4 | %23
 A,) (A,G,F, B,) (B,A,G, | A,) (A,G,F, B,) B,A,G, | x2 (C2 F2) x2 | CE=DC =B,C=A,B, | C2 x6 | x8 | %29
 x8 | x8 | x8 | x8 | x2 B,4 =A,2 | B,2 z B, C,B,C,=A, | B,2 z B, C,B,C,=A, | %36
 B,2 z[K:treble] A B,AB,=G | A,2 z2 TB3 A/B/ | A,4 TB,3 A,/B,/ | CCB,A, DDCB, | %40
 E4- ED TE3/2D/4E/4 | D2[K:bass] F,2 T_G,3 F,/G,/ | A,[K:treble] AFE =D4 | %43
 E2[K:bass] (_G,2 TA,3 G,/A,/ | B,)[K:treble] B=GF =E4 | F2 A,2 TB,3 A,/B,/ | F(FGA G)(GAB | %47
 [Ac]2) z2 C4 | F4 TE3 [FB]/[E=A]/ | B2 z2 F4 | B, z E4 =D2 | E2 z[K:bass] G, EF,=DF, | %52
 E, z z G, C2 B,2- | B,2 A,4 G,2 | =F, z z2 [F,CE] z z2 | [^F,B,E] z z2 [F,=A,E] z z2 | %56
 [^F,=A,^C][K:treble] ^F/^G/ =A/=B/^c/B/ A/G/F/=E/[K:bass] =D/^C/=B,/=A,/ | %57
 ^G,/=A,/=B,/^C/ =D/C/B,/A,/ G,/^F,/^E,/^D,/ ^C,/B,/A,/G,/ | %58
!fff!"^(voll)" [^F,=A,^C]2 z3/2[K:treble] (^G/8^F/8^E/8F/8 =A>)AG>F | %59
[K:bass] [^F,^G,=B,=D]2 z3/2[K:treble] =A/8^G/8^^F/8^G/8 =B>BA>^G | %60
[K:bass] [^E,^G,=B,=D]2 z3/2[K:treble] =A/8^G/8^^F/8^G/8 =B>BA>^G | %61
[K:bass] [_E,=G,_B,_D]2 z3/2[K:treble] _c/8_B/8=A/8B/8 d3/2 z/ z2 | %62
[K:bass] [E,A,_CE]2 z3/2[K:treble] B/8A/8G/8A/8 _c3/2 z/ z2 | %63
[K:bass] [_F,B,D]2 z3/2[K:treble] _c/8B/8=A/8B/8 d3/2 z/ z2 | %64
[K:bass] [_F,B,D]2 z3/2[K:treble] _c/8B/8=A/8B/8 d3/2 z/ z2 | %65
[K:bass] [E,=A,=C]2 z3/2[K:treble] d/8c/8=B/8c/8 e3/2 z/ z3/2 f/8e/8d/8e/8 | %66
[K:bass] F>FD>F G,2 z3/2 _G,/8F,/8E,/8F,/8 | E>EC>E F,2 z3/2 =F,/8E,/8D,/8E,/8 | %68
 D>DB,>D =E,2 z3/2 E,/ | C>B,A,>G, F,2- F,3/2=E,/4F,/4 | G,2 z2 z2[K:treble] ([=B,FA]2 | %71
 [C=EG]2) z2 z2[K:bass] =B,2 | [=E,G,]2 [F,A,]2 C4- | C2 !breath!z2 z4 || %74
[M:3/4]"^(II.)" (A,3/2B,/4C/4 D2 C2 | B,2) (G,2 A,2-) | (A,2 B,2 _C2 | =C2 B,) z z2 | %78
 (_G2 F) z z2 | (_F2 E) z B,2 | D3 C B,E- | [A,E]4 z2 |[K:treble] ([CA]2 [DB]2 [Ac]2 | %83
 [Bd]2 [EG]2 [FA]2) | (A2 B2 _c2 | =c2 B) z e2- | (e3/2{/fe=de}f/ d) z _d2- | %87
 (d3/2{/edcd}e/ c) z (f>A) | A3/2(3B/4A/4G/4 Az/A/ B z3/4 G/4 | (B3/2c/4B/4 A) z z2 | %90
 ([=DFA]2 [EG]) z z2 | ([=DFA]2 [EG]) z z2 | (G3 _A/G/) (G/F/E/F/) | (F2 E) z ([eg][=df]) | %94
 [ce]2- [ce]/ z/ [B=d]/ z/ [Ac]/ z/ [GB]/ z/ | ([FA]3 [EG] [=DF]2) | E2- (E/4F/4E/4=D/4E/=E/ F) z | %97
[K:bass] ([B,-=D]2 [B,E]) z ([CE-]2 | E)=D_D z D2- | D=B,C z z2 | %100
 [E,F,A,=D-]2 [F,D][A,F][_CG][A,F] | ([A,=D]2 [G,E]/) z/ z z2 | %102
[K:treble]"^(III.nur schwaches Gemshorn oder Salicional 8')" (E6 | D2) (G2 A2) | (F6 | %105
 E2-) E z z2 | ([C=A]2 [DB]) z z2 | ([B,G]2 [CA]) z z2 | [A,-F]2 E4- | E2- E z z2 | %110
 ([=DFA]2 [EG]) z z2 | ([=DFA]2 [EG]) z z2 |[K:bass] [G,B,-E-]4 E=D | %113
 (([F,B,-=D]2 [E,B,E])) z z[K:treble] ([eg]/[=df]/) | ([ce]3 [B=d] [Ac][GB]) | %115
 ([FA]3 [EG] [=DF]2) | E_G =G z =D z | ([A,=D]2 [G,E]) z ([CE_G=A]2 | [_DFB]) z z2 ([B,D_FG]2 | %119
 [CEA]) z z2 [A,_CEA]2 | ([A,_C=DF]6 | %121
 [G,B,E]) z [G,B,E]"_(+ Pedalcoppelungll.\nund Harmonica-\n     bass 16')" z z2 | %122
"^(II.)" (A2 G2) C/=B,/D/C/ | _B,/C/D/=D/ E/F/_G/=G/ B/A/G/A/ | %124
 (A/G/).A/.A/ (B/=A/).B/.B/ (_c/B/).c/.c/ | (=c/d/e/c/ B) z _G2 | %126
 =A/_g/f/e/ d/_c/[I:staff -1]_f/e/ d/_c/B/[I:staff +1]_A/ | %127
 =G/_f/e/d/ c/[I:staff -1]d/e/=e/[I:staff +1] D/=A,/B,/D/ | E4- [EG] z | ([B,E-G]2 [CEA]) z z2 | %130
 [EG] z [B,F] z z2 | G/G/F/G/ [FA]/[EG]/[=DF]/[CE]/[K:bass] x B,- | %132
 ([G,B,]/[^F,=A,]/[G,B,]/[F,A,]/ [G,B,]/[F,A,]/[G,B,]/[G,=B,]/ [_A,C]/[G,B,]/[A,C]/[=F,A,]/) | %133
 (([E,F,A,B,-=D]2 [E,G,B,E])) z z/[K:treble] [eg]/ z/ [=df]/ | %134
 [ce]2 z/ [ce]/ z/ [B=d]/ z/ [Ac]/ z/ [GB]/ | [FA]2 z/ [FA]/ z/ [EG]/ z/ [=DF]/ z/ [DF]/ | %136
 z/ E/ z/ [E_G]/ z/ ([^C=E]/[=DF]/[_E=G]/ [FA]/[=EG]/[FA]/) z/ | %137
 ([=DA]2 !breath![_EG]/)"^(I.Flote,Gambe u.Gems-\n                         horn 8')" (TE/_G/F/ E/_D/C/B,/ | %138
 =A,/B,/C/A,/ B,/)(TD/F/E/ D/C/B,/_A,/ | G,/A,/B,/G,/ A,/)(TC/E/D/ C/B,/A,/B,/) | %140
 (_C3/2D/4C/4) (B,3/2C/4B,/4) (A,3/2B,/4A,/4) | [G,E] [G,E] z [A,=DF] z [B,_DEG] | %142
"^(II.)" [CEAc]2 [GBd]2 [Ac]2 | [EB]2 [EB]2 [A,A-]2 | (A>=A B2 _c2 | =c2 B) z z2 | %146
 ([ce]2 [Bd]) z z2 | ([Bd]2 [Ac]) z z3/2 [Ac]/ | [df] z [ce] z [Bd] z | ([GBd]4 [Ac]) z/ [EA]/ | %150
 [DF] z [CE] z [B,D] z | ([GB]4 A) z/ [A-c]/ | [AB] [AB]2 [AB]2 [AB] | [Ac] z z2 z2 | %154
[K:bass] [A,C]6 |[K:treble] TG4{FG} !trill(!TB2{AB} | %156
 z[K:bass] E,- E,/4F,/4E,/4=D,/4 E,/4F,/4G,/4A,/4[K:treble] (6:4:6B,/4C/4D/4=D/4E/4F/4 (6:4:6G/4A/4=A/4B/4=B/4c/4 | %157
 !trill(!Td4 (6:4:6d/4e/4d/4e/4d/4c/4 .d || %158
[M:4/4][K:bass]!ff! [A,CE]2 z3/2[K:treble] B/8A/8G/8A/8 c>cB>A | %159
[K:bass] [A,B,D_F]2 z3/2[K:treble] _c/8B/8=A/8B/8 d>d_c>B | %160
[K:bass] [_G,B,E]2 z3/2[K:treble] A/8_G/8F/8G/8 B>BA>G | %161
[K:bass] [F,=A,CE]2 z3/2[K:treble] B/8=A/8G/8A/8 c3/2 z/ z3/2[K:bass] [EF]/ | %162
 [DF]>[DF][CE]>[B,D] F2 z2 | %163
 [F,B,D]2 z3/2[K:treble] e/8d/8c/8d/8 f3/2 z/ z3/2[K:bass] _G,/8F,/8=E,/8F,/8 | %164
 B,>B, B,3/2[K:treble] _c/8B/8=A/8B/8 d3/2 z/ z3/2[K:bass] E,/8D,/8=C,/8D,/8 | %165
 _G,>G, G,3/2[K:treble] A/8_G/8F/8G/8 B3/2 z/ z3/2[K:bass] =C/8B,/8=A,/8B,/8 | %166
 D>DC>B, _A,>A,G,>F, | =E,2 z2 z2[K:treble] (=B2 | [=EG]2) z2 z2[K:bass] =B,2 | %169
 [=E,G,]2 [F,A,]2 C4- | [=E,G,]2 z2[K:treble]!fff! (c4 | F4 G4 | A) (AGF B) (BAG | %173
 A) (AGF B) (BAG | A2) z2 z2 x2 | x2 (_E2 TF3 E/F/ | .G/)(G/^F/G/ F/G/F/G/ A/G/=A/G/ _B/G/=B/G/ | %177
 .c/)(G/^F/G/ F/G/F/G/ A/G/=A/G/ _B/G/=B/G/ | c) z z2 z2 c2 | A2[K:bass] (A,2 TB,3 A,/B,/ | %180
 .C/)(C/=B,/C/ B,/C/B,/C/ D/C/=D/C/ _E/C/=E/C/ | .F/)C/=B,/C/ B,/C/B,/C/ D/C/=D/C/ _E/C/=E/C/ | %182
[K:treble] A z G2 c2[K:bass] (C2 | F,2 G,2 =A,/)A,/G,/F,/ =B,/B,/A,/G,/ | E2 =D2[K:treble] CGF>E | %185
 G/G/^F/G/ F/G/F/G/ A/G/=A/G/ B/G/=B/G/ | .c/G/^F/G/ F/G/F/G/ A/G/=A/G/ B/G/=B/G/ | %187
 c z _d/c/_B/A/ G/F/B/A/ G/F/=E/G/ | A4 TB3 A/G/ | F z z c- (cB) z B- | (BA) z x x4 | %191
 z/ F/_G/F/ G/F/G/F/ =G/F/G/F/ _A/F/A/F/ | =A/F/A/F/ B/F/B/F/ B/ z/ z z[K:bass] (_G, | %193
 F,=D) z (A, =G,E) z2 | z8 |[K:treble] z/ c/=B/c/ B/c/B/c/ _B/c/B/c/ =A2 | %196
 _A/B/A/B/ G2- G/A/G/A/ F/A/F/A/ | F/G/F/G/ =E/G/E/G/[K:bass] _A,/C/_E,/C/ =D,/F,/_D,/=B,/ | %198
 C,/=E,/G,/C/ C,/F,/A,/C/ C,/F,/G,/C/ C,/E,/G,/C/ | %199
!fff! [F,A,C]2 z3/2[K:treble] G/8F/8=E/8F/8 A>AG>F | %200
[K:bass] [=E,G,B,D]2 z3/2[K:treble] A/8G/8^F/8G/8 B>BA>G | %201
[K:bass] [E,_G,=A,C]2 z3/2[K:treble] B/8=A/8^G/8A/8 c3/2 z/ z3/2 [E_G]/ | %202
 [=DF]>[DF][CE]>[B,D][K:bass] F>[I:staff -1]AG>[I:staff +1]F | [G,C=E]2 z2 z4 | z4[K:treble] (c4 | %205
 F4 TG3 F/G/ | A)AGF TB,3 A,/B,/ | C =E=DC F FED | G GF=E A AGF | _B2 A2 TG3 F/G/ | %210
 F/ C/=B,/C/ B,/C/B,/C/ D/C/=D/C/ E/C/=E/C/ | F/ C/=B,/C/ B,/C/B,/C/ D/C/=D/C/ E/C/=E/C/ | %212
 F2 z2 z2 [Fc_e]2 | [FBd]2 [DGB] z [CFA] z [B,=EG] z | [A,CFA]2 z2 z2 T=E3/2=D/4E/4 | %215
 F2 z2 z2 T=E3/2=D/4E/4 | F/ F/_G/F/ G/F/G/F/ =E/F/_E/F/ _D/F/C/F/ | %217
 B, z [DGB] z [CFA] z [B,=EG] z | z2 z =D/F/ E/_G/=B,/D/ C/E/=A/c/ | %219
 B/d/^F/=A/ G/B/=E/G/ .=F.[_A,F_A].[DFG].[CEGB] | %220
 .[CFA] z[K:bass] ([G,B,C=E]2 [A,CF]) z ([G,B,CE]2 | [A,CF]) z .[C,F,C]2 .[C,F,A,C]2 z2 |] %222
V:3
"^(Volles Pedal )" [F,,F,]2 z2 z4 | [F,,F,]2 z2 z4 | [=E,,=E,]2 z2 z4 | [_E,,_E,]2 z2 z4 | %4
 z4 F,2 z2 | B,,2 z2 z2 z3/2 F,,/ | B,,>B,, B,,2 z2 z3/2 D,,/ | _G,,>G,, G,,2 z4 | C,,8- | %9
 C,,2 z2 z2 C2- | C2 z2 z2 C,2- | C,8- | C,2 z2"_(meno forte)" z4 | z8 | z8 | z8 | z8 | z8 | z8 | %19
 z8 | z8 | z8 | z8 | z8 | z8 | z4 (F,4 | C,4 =D,4 | E,) (E,=D,C, F,) (F,E,D, | %28
 E,) (E,=D,C, F,) (F,E,D, | E,) E,=D,C, G,4- | G,_DB,G, =E,G,C,E, | F,A,,G,,F,, C,4- | %32
 C,_G,E,C, =A,,C,F,,A,, | B,,D,_G,F, E,C,F,F,, | B,,2 z2 z2 z F, | B,,2 z2 z2 z F, | %36
 B,,2 z2 E,3 D, | C,2 z2 z4 | z8 | z8 | z4 (A,4 | D,4"_(""_)" TE,3 D,/E,/ | F,2) z2 (B,4 | %43
 E,4"_(""_)" T_F,3 E,/F,/ | =G,2) z2 (C4 | F,4"_(""_)" TG,3 F,/G,/ | A,)(A,G,F, B,)(B,A,G, | %47
 C2) z2 z4 | z4 (F,4 | B,4 T_A,3 B,/A,/ | G,)G,A,B, F,F,G,A, | E,2 z2 z4 | z2 (C,2 A,,2 B,,2 | %53
 G,,2 A,,2 F,,2 G,,2) | A,, z z2 =A,, z z2 | B,, z z2 C, z z2 | ^C, z z2 z4 | [C,,^C,]4 ^C,,2 C,2 | %58
"^(voll)" [^F,,^F,]2 z2 z4 | [^F,,^F,]2 z2 z4 | [^E,,^E,]2 z2 z4 | [_E,,_E,]2 z2 z4 | %62
 [A,,A,]2 z2 z4 | [A,,A,]2 z2 z4 | [G,,G,]2 z2 z4 | [=F,,=F,]2 z2 z2 z3/2 F,/ | %66
 D>DB,>D E,2 z3/2 E,/ | C>CA,>C D,2 z3/2 D,/ | B,>B,G,>B, C,2 z3/2 C,/ | F,2- F,>_E, =D,2 _D,2 | %70
 C,2 z2 z2 C,2- | C,2 z2 z2 C,,2- | C,,8- | C,,2 z2 z4 ||[M:3/4]"^(pdolce)""_(Nur 8')" A,6 | %75
 (E,4 F,2) | (=D,6 | E,3) z z2 | (=A,2 B,) z z2 | (=G,2 _A,) z D,2 | E,6 | A,4 z2 | z6 | z6 | z6 | %85
 z6 | (F,2 B,) z z2 | (E,2 F,) z D, z | E,4- E, z | A,,3 z z2 | z6 | z6 | B,6 | E,3 z z2 | z6 | %95
 B,4- (B,=B,) | (C=A,) B,3 z | E,3 z E,2- | E,3 z E,2- | E,3 z z2 | z2 E,2- E,E, | %101
 [E,,E,]2- [E,,E,]/ z/ z z2 |"_(Subbass 16' u. 1 schwacher 8')" A,6 | (E,4 F,2) | (=D,6 | %105
 E,3) z z2 | (E,2 _D,) z z2 | (D,2 C,) z z2 | (D,=D, E,4) | A,,3 z z2 | z6 | z6 | B,,6 | %113
 E,,3 z z2 | z6 | B,4- B,=B, | (C=A,) B, z B, z | E,3 z E,2- | E, z z2 E,2- | E, z z2 E,2 | E,,6- | %121
 E,, z E,, z z2 | A,6 | (E,4 F,2) | (=D,6 | E,3) z z2 | (F,2 B,) z z2 | (E,2 A,2) .D,2 | %128
 E,4- E, z | A,,3 z z2 | E, z B,, z z2 | E, z B,, z z2 | B,,6 | E,,3 z z2 | z6 | .B,2 (B,3 =B,) | %136
 (C=A,) B,3 z | E,3 z z2 | (E,2 E,,) z z2 | (E,2 E,,) z z2 | (E,4 E,,2) | %141
 E,,2"^(Ped. + Prine._Bass 16')" z2 z2 |"_legato" A,/E,/G,/A,/ B,/E,/A,/B,/ C/E,/B,/C/ | %143
 D/C/B,/A,/ G,/E,/F,/G,/ A,/G,/F,/E,/ | D,/A,/B,/=C/ D/B,/F,/E,/ =D,/E,/F,/D,/ | %145
 E,/A,/C,/=D,/ E,/(=A,/B,/)(^F,/ G,/)E,/C/B,/ | %146
 =A,/C/A,/F,/ B,/(=E,/F,/)(C,/ D,/)(=A,,/B,,/_A,,/) | %147
 (G,,/B,/G,/E,/ A,/)(=D,/E,/)(=B,,/ C,/)(G,,/A,,/F,,/) | %148
 (D,/F,/D,/B,/) (E,/A,/E,/C/) (E,/G,/E,/B,/) | (E,/=D,/E,/D,/ E,/D,/E,/=E,/ F,/G,/A,/C,/) | %150
 (D,/F,/D,/B,/) (E,/A,/E,/C/) (E,/G,/E,/B,/) | (E,/=D,/E,/D,/ E,/D,/E,/=E,/ F,/G,/A,/C,,/) | %152
 D,,/D,/E,,/E,/ F,,/F,/E,,/E,/ =D,,/=D,/F,,/F,/ | [E,,E,] z z2 z2 | E,,2- E,, z z2 | z6 | z6 | %157
"^+" z6 ||[M:4/4] [A,,A,]2 z2 z4 | [A,,A,]2 z2 z4 | [_G,,_G,]2 z2 z4 | [F,,F,]2 z2 z4 | z4 F,2 z2 | %163
 B,,2 z2 z2 z3/2 F,,/ | B,,>B,, B,,2 z2 z3/2 D,,/ | _G,,>G,, G,,2 z4 | C,,8- | C,,2 z2 z2 C2- | %168
 C2 z2 z2 C,2- | C,8- | C,2 z2 z4 | z8 | z8 | z8 | z8 | z8 | z8 | z8 | z4 (C4 | F,4 G,4 | %180
 A,)(A,G,F, B,)(B,A,G, | A,)(A,G,F, B,)(B,A,G, | F,) z z2 z4 | z4 z2 (G,2 | %184
 C,2 =D,2 E,/)E,/D,/C,/ F,/F,/E,/D,/ | G,2 z2 z2 G,2 | C,2 z2 z2 G,2 | C,2 z2 z2 C2- | %188
 C/=B,/D/C/ _B,/A,/G,/F,/ =E,/G,/C/B,/ A,/G,/F,/E,/ | %189
 .F,/ C,/D,/C,/ D,/C,/D,/C,/ =D,/C,/D,/C,/ _E,/C,/E,/C,/ | %190
 =E,/C,/E,/C,/ F,/C,/F,/C,/ G,/C,/G,/C,/ =A,/C,/A,/C,/ | B, z z (D, C,=A,) z (E, | %192
 =D,B,) z (F, E,2) z2 | z4 z2 z (B, | A,)(A,_B,C .G,)(G,A,B, | .F,)(F,G,A,) .C,2 (F,2 | %196
 B,)B, z (E, A,/)G,/A, z (=D, | G,)G, z (C, F,)E,=D,_D, | C,2 C,2 C,2 C,2 | [F,,F,]2 z2 z4 | %200
 [=E,,=E,]2 z2 z4 | [_E,,_E,]2 z2 z4 | [=D,,=D,]2 z2 [_D,,_D,]2 z2 | [C,,C,]2 z2 z4 | z8 | z8 | %206
 z4 (G,4 | C,4 T=D,3 C,/D,/ | =E,) E,=D,C, F, F,E,D, | G,=E,A,F, B,G,CC, | F,2 z2 z2 C,2 | %211
 F,2 z2 z2 C,2 | F,/F,/=E,/F,/ E,/F,/E,/F,/ _G,/F,/=G,/F,/ A,/F,/=A,/F,/ | .B,2 .B,,2 .C,2 .C,2 | %214
 F,,2 z2 z2 C,2 | F,2 z2 z2 C,2 | F,2 z (D C2 B,=A, | .B,2) .B,,2 .C,2 .C,2 | z4 z2 z =A,/C/ | %219
 B,/D/^F,/=A,/ G,/B,/=E,/G,/ .=F, .D,.B,,.C, | .F,, z (C,2 F,) z (C,2 | F,) z .F,,2 .F,,2 z2 |] %222
V:4
 x7/2[K:treble] x9/2 |[K:bass] x7/2[K:treble] x9/2 |[K:bass] x7/2[K:treble] x9/2 | %3
[K:bass] x7/2[K:treble] x9/2 | x4[K:bass] [=A,C]>[A,C][=G,B,]>[F,A,] | %5
 x7/2[K:treble] x4[K:bass] x/ | x7/2[K:treble] x4[K:bass] x/ | x7/2[K:treble] x4[K:bass] x/ | x8 | %9
 x6[K:treble] [FA]2 | x6[K:bass] [F,A,]2 | x2 z2 [=E,G,]2 [F,A,]2 | x8 | x8 | x8 | x8 | %16
 x4[K:treble] x4 | x8 | x8 | x8 | x8 | z4 x4 |[K:bass] x8 | x8 | x8 | A,G,F,G, A,=A,B,=B, | x8 | %27
 x8 | x8 | x8 | x8 | x8 | x8 | x8 | x8 | x8 | x3[K:treble] x5 | x4 E4 | x8 | x8 | x8 | %41
 x2[K:bass] x6 | x[K:treble] x7 | x2[K:bass] x6 | x[K:treble] x7 | x8 | C(CB,A, D)(DCB, | F2) x6 | %48
 x8 | =DDEF CCDE | x8 | x3[K:bass] x5 | E GEC x4 | x8 | C x7 | x8 | x[K:treble] x5[K:bass] x2 | %57
 x8 | x7/2[K:treble] x9/2 |[K:bass] x7/2[K:treble] x9/2 |[K:bass] x7/2[K:treble] x9/2 | %61
[K:bass] x7/2[K:treble] x9/2 |[K:bass] x7/2[K:treble] x9/2 |[K:bass] x7/2[K:treble] x9/2 | %64
[K:bass] x7/2[K:treble] x9/2 |[K:bass] x7/2[K:treble] x9/2 |[K:bass] x8 | x8 | x8 | x8 | %70
 x6[K:treble] x2 | x6[K:bass] ([F,A,]2 | x2 z2 [=E,G,]2 [F,A,]2 | [=E,G,]2) x6 ||[M:3/4] x6 | x6 | %76
 x6 | x6 | x6 | x6 | x6 | x6 |[K:treble] x6 | x6 | (=D6 | E3) x3 | x6 | x6 | x6 | x6 | x6 | x6 | %92
 z2 B,4- | B,3 x3 | x6 | x6 | x6 |[K:bass] x6 | B,2 x2 (B,2 | A,2) x4 | x6 | x6 | %102
[K:treble] (C2 D2 C2 | B,4 A,2-) | (A,2 B,2 _C2 | =C2 B,) x3 | x6 | x6 | B,_C [A,=C]2 [G,D]2 | %109
 ([G,D]2 [A,C]) x3 | x6 | x6 |[K:bass] x4 [F,B,-]2 | x5[K:treble] x | x6 | x6 | E3 x3 | x6 | x6 | %119
 x6 | x6 | x6 | E/=E/F/E/ _D/C/E/D/ x2 | x6 | x6 | x6 | _G/e/c/=A/ B z _F2- | %127
 F/d/B/G/ A/B/c/C/ x2 | C/=B,/C/C/ D/C/D/C/ _B, x | A,3 x3 | x6 | %131
 E z B, z[K:bass] [B,=D]/[A,C]/[G,B,]/[F,A,]/ | E,4 =D,2 | x9/2[K:treble] x3/2 | x6 | x6 | %136
 x2 B,3 x | x6 | x6 | x6 | x6 | x6 | x2 E4- | x6 | x6 | x6 | x6 | x6 | x6 | x6 | x6 | x11/2 E/ | %152
 FEDEF=D | E x5 |[K:bass] E,2- E, z z2 |[K:treble] x6 | x[K:bass] x3[K:treble] x2 | E6 || %158
[M:4/4][K:bass] x7/2[K:treble] x9/2 |[K:bass] x7/2[K:treble] x9/2 |[K:bass] x7/2[K:treble] x9/2 | %161
[K:bass] x7/2[K:treble] x4[K:bass] x/ | x4 [=A,C]>[A,C][=G,B,]>[F,A,] | %163
 x7/2[K:treble] x4[K:bass] x/ | x7/2[K:treble] x4[K:bass] x/ | x7/2[K:treble] x4[K:bass] x/ | x8 | %167
 x6[K:treble] [FA]2 | x6[K:bass] [F,A,]2 | x2 z2 [=E,G,]2 [F,A,]2 | C2 x2[K:treble] x4 | x8 | x8 | %173
 x8 | z4 (F4 | C4 =D4 | .E)(E=DC =F)(FED | E)(E=DC =F)(FED | C) x _d2- d/c/B/A/ G/A/B/G/ | %179
 x2[K:bass] x6 | x8 | x8 |[K:treble] F x z2 z2[K:bass] x2 | x8 | x4[K:treble] x4 | %185
 =D/ z/ (EDC =F)(FED | E)(E=DC =F)(FED | C) c/=B/ x6 | F2 z2 z4 | z8 | z8 | x8 | x7[K:bass] x | %193
 x8 | x8 |[K:treble] z2 F2 =E2 T_E3/2=D/4E/4 | =D2 T_D3/2C/4D/4 C2- C/=B,/C/=D/ | %197
 =B,_B,- B,/=A,/B,/C/[K:bass] x4 | x8 | x7/2[K:treble] x9/2 |[K:bass] x7/2[K:treble] x9/2 | %201
[K:bass] x7/2[K:treble] x9/2 | x4[K:bass] [F,=B,]2 z2 | x8 | x4[K:treble] x4 | z4 _E4 | A,4 x4 | %207
 x8 | x8 | x8 | x8 | x8 | x8 | x8 | x8 | x8 | x8 | x8 | x8 | x8 | x2[K:bass] x6 | x8 |] %222
V:5
 x8 | x8 | x8 | x8 | x8 | x8 | x8 | x8 | x6 G>A | G2 x6 | x8 | C2 x6 | x8 | x8 | x8 | x8 | x8 | %17
 x8 | x8 | x8 | x8 | x4 F=D=EC | G=EF=D AFGE | %23
 F z z f[I:staff +1] G[I:staff -1]f[I:staff +1]G[I:staff -1]=e | %24
 f2 z f[I:staff +1] G[I:staff -1]f[I:staff +1]G[I:staff -1]=e | f z x4 A2 | G2 FE F3 E/=D/ | %27
 G2 z c =DcD=B | c2 z c =DcD=B | c4- cc_B=A | B4- Bc/B/_AG | AcBA G4- | e4- ef/e/_dc | %33
 [Fd]2 z2 z4 | d (dcB e) (edc | d) (dcB e) (edc | d) z z2 ddcB | A4 x4 | .a(.e c'2-) c'bag | %39
 eedc .fFGA | G A2 _G- GFGA | FFED[I:staff +1] C[I:staff -1]_gfe | _c4 c_d/c/ BA | %43
 _GGFE[I:staff +1] =D[I:staff -1]a_gf | _d4- d_e/d/ cB | AAGF[I:staff +1] .=E[I:staff -1]BAG | x8 | %47
 x2 f4 _e2- | ef=de Tc3 x | x8 | B4 TA3 B/A/ | %51
[I:staff +1] GG[I:staff -1]AB[I:staff +1] FFG[I:staff -1]A | %52
 B x3 e[I:staff +1]F[I:staff -1]=d[I:staff +1]F | %53
[I:staff -1] =d[I:staff +1]E[I:staff -1]c[I:staff +1]E[I:staff -1] c[I:staff +1]=D[I:staff -1]=B[I:staff +1]D | %54
[I:staff -1] c z z2 c z z2 | B z z2 =A z z2 | x8 | ^F4 ^E4 | x8 | x8 | x8 | x8 | x8 | x8 | x8 | %65
 x8 | x8 | x8 | x8 | x6 A3/2G/4F/4 | =E2 x6 | x8 | C2 x6 | x8 ||[M:3/4] E6- | E2 x4 | F6 | %77
 E3 x z2 | (c2 B) x z2 | (B2 A) x A2- | A2 G3 [GB] | ([GB]2 A) x3 | e6- | e2 b2 a2 | (f6 | e3) x3 | %86
 x6 | x6 | x6 | x6 | x6 | x6 | (e4 =d2) | x6 | x6 | x6 | x6 | x4 (=A2 | B3) x (G2 | A3) x3 | x6 | %101
 x6 | x6 | x6 | x6 | x6 | x6 | x6 | x6 | x6 | x6 | x6 | x6 | x6 | x6 | x6 | x6 | x6 | x6 | x6 | %120
 x6 | x6 | e6- | dB [eg]b a2 | (f6 | e2-) e/=d/e/d/ e/_d/c/[I:staff +1]B/ | x6 | %127
 x4[I:staff -1] =f/c/d/F/ | A/G/A/[^F=A]/ [GB]/[FA]/[GB]/[_Ac]/ [Bd] z | x4 z2 | %130
 z/ [eg]/[=df]/[eg]/ [fa]/[eg]/[df]/[I:staff +1][ce]/ x2 |[I:staff -1] z/ e/=d/e/ f z z2 | e4 =d2 | %133
 ([=df]2 e) x3 | x6 | x6 | x2 B3 z | B3 x3 | x4 [df]f | x4 [ce]e | %140
 (PF/=E/).F/.F/ (PF/E/).F/.F/ (PF/E/).F/.F/ | x6 | e6- | e4 e>=e | f4- f/e/=d/f/ | e3 x3 | x6 | %147
 x6 | x6 | x6 | x6 | x11/2 e/ | fedef=d | e x5 | x6 | x6 | !trill)!g6 | %157
 !trill)!g4 (6:4:6g/4a/4g/4a/4g/4f/4 .g ||[M:4/4] x8 | x8 | x8 | x8 | x8 | x8 | x8 | x8 | x6 G>A | %167
 G2 x6 | x8 | C2 x6 | x8 | x8 | x8 | x8 | x6 c/=B/=A/B/ | c2 x6 | x8 | x8 | x8 | %179
 c/=B/_d/c/ _B/A/G/F/ =E/G/c/B/ A/G/F/E/ | F z z c- (cB) z B- | (BA) z c- (cB) z B | x6 B2 | %183
 A/A/B/c/ G/G/A/B/ F4 | G2 F2 Ec[I:staff +1]T_A3/2G/4A/4 | x8 | x8 | %187
 x2[I:staff -1] b2- b/a/g/f/ =e/_d/c/[I:staff +1]B/ | x8 | x8 | x3[I:staff -1] f- (f=ef_e | %191
 d)(dcB e)(edc | f)(fe=d .e/)B/_c/B/ c/B/c/B/ | =c/B/c/B/ _d/B/d/B/ =d/B/d/B/ e/B/=e/B/ | %194
 f2 z2 z4 | x8 | x8 | x4 c=AB=B | G2 _A2 G2 x2 | x8 | x8 | x8 | x4 _a>ag>f | x8 | x8 | x8 | %206
 x4 =ddcB | x8 | x8 | x2 c2 d2 cB | A2 x6 | x8 | x8 | x8 | c/ z/ z z2 z2 cB | A/ z/ z z2 z2 cB | %216
 A2 z2 z x3 | x8 | x8 | x8 | x8 | x8 |] %222
V:6
 x8 | x8 | x8 | x8 | x8 | x8 | x8 | x8 | x8 | x8 | x8 | x8 | x8 | x8 | x8 | x8 | x8 | x8 | x8 | %19
 x8 | x8 | x8 | x8 | x8 | x8 | x8 | x8 | x8 | x8 | x8 | x8 | x8 | G=ABc F4- | x8 | x8 | x8 | x8 | %37
 x8 | x8 | x8 | x8 | x8 | x8 | x8 | x8 | x8 | x8 | x8 | x8 | x8 | x8 | x8 | x8 | x8 | x8 | x8 | %56
 x8 | x8 | x8 | x8 | x8 | x8 | x8 | x8 | x8 | x8 | x8 | x8 | x8 | x8 | x8 | x8 | x8 | x8 || %74
[M:3/4] x6 | x6 | x6 | x6 | x6 | x6 | x6 | x6 | x6 | x6 | x6 | x6 | x6 | x6 | x6 | x6 | x6 | x6 | %92
 x6 | x6 | x6 | x6 | x6 | x6 | x6 | x6 | x6 | x6 | x6 | x6 | x6 | x6 | x6 | x6 | x6 | x6 | x6 | %111
 x6 | x6 | x6 | x6 | x6 | x6 | x6 | x6 | x6 | x6 | x6 | x4 A2 | x6 | x6 | x6 | x6 | x6 | x6 | x6 | %130
 x6 | x6 | x6 | x6 | x6 | x6 | x6 | x6 | ([ce]/[Bd]/[=Ac]/[ce]/ [Bd]) z x2 | %139
 ([Bd]/[_Ac]/[GB]/[Bd]/ [Ac]) z x2 | x6 | x6 | x6 | x6 | x6 | x6 | x6 | x6 | x6 | x6 | x6 | x6 | %152
 x6 | x6 | x6 | x6 | x6 | x6 ||[M:4/4] x8 | x8 | x8 | x8 | x8 | x8 | x8 | x8 | x8 | x8 | x8 | x8 | %170
 x8 | x8 | x8 | x8 | x8 | x8 | x8 | x8 | x8 | x8 | x8 | x8 | x8 | x8 | x8 | x8 | x8 | x8 | x8 | %189
 x8 | x8 | x8 | x8 | x8 | x8 | x8 | x8 | x4 z F2 G | x8 | x8 | x8 | x8 | x8 | x8 | x8 | x8 | x8 | %207
 x8 | x8 | x8 | x8 | x8 | x8 | x8 | x8 | x8 | x8 | x8 | x8 | x8 | x8 | x8 |] %222
V:7
 x8 | x8 | x8 | x8 | x8 | x8 | x8 | x8 | x8 | x8 | x8 | x8 | x8 | x8 | x8 | x8 | x8 | x8 | x8 | %19
 x8 | x8 | x8 | x8 | x8 | x8 | x8 | x8 | x8 | x8 | x8 | x8 | x8 | x8 | x8 | x8 | x8 | x8 | x8 | %38
 x8 | x8 | x8 | x8 | x8 | x8 | x8 | x8 | x8 | x8 | x8 | x8 | x8 | x8 | x8 | x8 | x8 | x8 | ^C,,8- | %57
 x8 | x8 | x8 | x8 | x8 | x8 | x8 | x8 | x8 | x8 | x8 | x8 | x8 | x8 | x8 | x8 | x8 ||[M:3/4] x6 | %75
 x6 | x6 | x6 | x6 | x6 | x6 | x6 | x6 | x6 | x6 | x6 | x6 | x6 | x6 | x6 | x6 | x6 | x6 | x6 | %94
 x6 | x6 | x6 | x6 | x6 | x6 | E,,6- | x6 | x6 | x6 | x6 | x6 | x6 | x6 | x6 | x6 | x6 | x6 | x6 | %113
 x6 | x6 | x6 | x6 | x6 | x6 | x6 | x6 | x6 | x6 | x6 | x6 | x6 | x6 | x6 | x6 | x6 | x6 | x6 | %132
 x6 | x6 | x6 | x6 | x6 | x6 | x6 | x6 | x6 | x6 | x6 | x6 | x6 | x6 | x6 | x6 | x6 | x6 | x6 | %151
 x6 | x6 | x6 | x6 | x6 | x6 | x6 ||[M:4/4] x8 | x8 | x8 | x8 | x8 | x8 | x8 | x8 | x8 | x8 | x8 | %169
 x8 | x8 | x8 | x8 | x8 | x8 | x8 | x8 | x8 | x8 | x8 | x8 | x8 | x8 | x8 | x8 | x8 | x8 | x8 | %188
 x8 | x8 | x8 | x8 | x8 | x8 | x8 | x8 | x8 | x8 | x8 | x8 | x8 | x8 | x8 | x8 | x8 | x8 | x8 | %207
 x8 | x8 | x8 | x8 | x8 | x8 | x8 | x8 | x8 | x8 | x8 | x8 | x8 | x8 | x8 |] %222

